optimized/outline/video-camera.svg

<svg xmlns="http://www.w3.org/2000/svg" fill="none" viewBox="0 0 24 24" stroke-width="2" stroke="currentColor" aria-hidden="true">
  <path stroke-linecap="round" stroke-linejoin="round" d="M15 10L19.5528 7.72361C20.2177 7.39116 21 7.87465 21 8.61803V15.382C21 16.1253 20.2177 16.6088 19.5528 16.2764L15 14M5 18H13C14.1046 18 15 17.1046 15 16V8C15 6.89543 14.1046 6 13 6H5C3.89543 6 3 6.89543 3 8V16C3 17.1046 3.89543 18 5 18Z"/>
</svg>

<svg xmlns="http://www.w3.org/2000/svg" fill="none" viewBox="0 0 24 24" stroke-width="2" stroke="currentColor" aria-hidden="true">
  <path stroke-linecap="round" stroke-linejoin="round" d="M15 10l4.553-2.276A1 1 0 0121 8.618v6.764a1 1 0 01-1.447.894L15 14M5 18h8a2 2 0 002-2V8a2 2 0 00-2-2H5a2 2 0 00-2 2v8a2 2 0 002 2z"/>
</svg>
